svgs/thin/arrow-up-big-small.svg

<svg xmlns="http://www.w3.org/2000/svg" viewBox="0 0 512 512"><!--! Font Awesome Pro 6.3.0 by @fontawesome - https://fontawesome.com License - https://fontawesome.com/license (Commercial License) Copyright 2023 Fonticons, Inc. --><path d="M416 320h-127.1c-17.6 0-32 14.4-32 32v96c0 17.6 14.4 32 32 32H416c17.6 0 32-14.4 32-32v-96C448 334.4 433.6 320 416 320zM432 448c0 8.822-7.178 16-16 16h-127.1c-8.822 0-16-7.178-16-16v-96c0-8.822 7.178-16 16-16H416c8.822 0 16 7.178 16 16V448zM480 32h-191.1c-17.67 0-32 14.33-32 32v160c0 17.67 14.33 32 32 32H480c17.67 0 32-14.33 32-32V64C512 46.33 497.7 32 480 32zM496 224c0 8.822-7.178 16-16 16h-191.1c-8.822 0-16-7.178-16-16V64c0-8.822 7.178-16 16-16H480c8.822 0 16 7.178 16 16V224zM101.9 34.48c-3.062-3.312-8.75-3.312-11.81 0L2.09 130.5c-2.969 3.252-2.75 8.314 .5 11.32c3.25 3 8.312 2.781 11.31-.5L88 60.47V471.1C88 476.4 91.59 480 96 480s8-3.594 8-8.002V60.47l74.1 80.85c1.594 1.719 3.75 2.594 5.906 2.594c1.938 0 3.875-.6875 5.406-2.094c3.25-3.002 3.469-8.064 .5-11.32L101.9 34.48z"/></svg>

<svg xmlns="http://www.w3.org/2000/svg" viewBox="0 0 512 512"><!-- Font Awesome Pro 6.0.0-alpha2 by @fontawesome - https://fontawesome.com License - https://fontawesome.com/license (Commercial License) --><path d="M416 320H288.002C270.402 320 256.002 334.4 256.002 352V448C256.002 465.6 270.402 480 288.002 480H416C433.6 480 448 465.6 448 448V352C448 334.4 433.6 320 416 320ZM432 448C432 456.822 424.822 464 416 464H288.002C279.18 464 272.002 456.822 272.002 448V352C272.002 343.178 279.18 336 288.002 336H416C424.822 336 432 343.178 432 352V448ZM480 32H288.002C270.328 32 256.002 46.326 256.002 64V224C256.002 241.674 270.328 256 288.002 256H480C497.674 256 512 241.674 512 224V64C512 46.326 497.674 32 480 32ZM496 224C496 232.822 488.822 240 480 240H288.002C279.18 240 272.002 232.822 272.002 224V64C272.002 55.178 279.18 48 288.002 48H480C488.822 48 496 55.178 496 64V224ZM101.906 34.484C98.844 31.172 93.156 31.172 90.094 34.484L2.09 130.508C-0.879 133.76 -0.66 138.822 2.59 141.824C5.84 144.824 10.902 144.605 13.902 141.324L88 60.471V471.998C88 476.406 91.594 480 96 480S104 476.406 104 471.998V60.471L178.098 141.324C179.691 143.043 181.848 143.918 184.004 143.918C185.941 143.918 187.879 143.23 189.41 141.824C192.66 138.822 192.879 133.76 189.91 130.508L101.906 34.484Z"/></svg>
